X: 1
T: Poon Hill
M: 4/4
L: 1/8
R: reel
K: Bmin
B2fB f2ed | ~e3a fdBA | ABfB zfed | e2de ef2E- |
EFGd cAED | D~E2D ~E2DE- | EFGd cAdA |1 e2dB f2ed :|2 e2dB f2ef ||
|: a~f3 eBde | fBde fbaf | a3f eBde | fBde f2ea- |
agAf- fdBA | F~G2d cAcd | GBfe- ~e2dB | deed c2z2 :|
